icons/typhoon-fill.svg

<svg xmlns="http://www.w3.org/2000/svg" width="24" height="24" fill="none"><g clip-path="url(#a)"><g><path fill="#121212" d="M17.654 1.69995L14.872 4.23295C16.167 4.62414 17.359 5.29803 18.362 6.20595C21.874 9.40595 21.874 14.594 18.362 17.794C15.77 20.154 11.764 21.656 6.34597 22.2999L9.12797 19.767C7.83292 19.3758 6.6409 18.7019 5.63797 17.794C2.12597 14.594 2.10497 9.42495 5.63797 6.20595C8.22997 3.84595 12.237 2.34395 17.655 1.69995H17.654ZM12 7.99995C9.51497 7.99995 7.49997 9.78995 7.49997 12C7.49997 14.21 9.51497 16 12 16C14.485 16 16.5 14.21 16.5 12C16.5 9.78995 14.485 7.99995 12 7.99995Z"/></g></g><defs><clipPath id="a"><rect width="24" height="24" fill="white"/></clipPath></defs></svg>

<svg width="24" height="24" fill="none" xmlns="http://www.w3.org/2000/svg"><g clip-path="url(#a)"><path d="m17.654 1.7-2.782 2.533a9.138 9.138 0 0 1 3.49 1.973c3.512 3.2 3.512 8.388 0 11.588-2.592 2.36-6.598 3.862-12.016 4.506l2.782-2.533a9.138 9.138 0 0 1-3.49-1.973c-3.512-3.2-3.533-8.37 0-11.588C8.23 3.846 12.237 2.344 17.655 1.7h-.001ZM12 8c-2.485 0-4.5 1.79-4.5 4s2.015 4 4.5 4 4.5-1.79 4.5-4-2.015-4-4.5-4Z" /></g><defs><clipPath id="a"><path fill="#fff" d="M0 0h24v24H0z"/></clipPath></defs></svg>
